public/assets/svg/logo-dark.svg

<svg width="392" height="78" viewBox="0 0 392 78" fill="none" xmlns="http://www.w3.org/2000/svg">
<path d="M79.538 10.2373L75.9028 14.2434L72.3253 18.1836L68.2614 22.6679C68.1543 22.5854 68.0554 22.503 67.9564 22.4041C66.5634 21.011 66.5634 18.7441 67.9564 17.3428L69.9842 15.315L74.7817 10.5175C75.4659 9.83334 76.3891 9.4624 77.3123 9.4624C77.8317 9.4624 78.3592 9.57781 78.8456 9.80861C79.0929 9.93226 79.3237 10.0724 79.5297 10.2373H79.538Z" fill="#3D63AE"/>
<path d="M79.538 10.2373L75.9028 14.2434L72.3253 18.1836L68.2614 22.6679C68.1543 22.5854 68.0554 22.503 67.9564 22.4041C66.5634 21.011 66.5634 18.7441 67.9564 17.3428L69.9842 15.315L74.7817 10.5175C75.4659 9.83334 76.3891 9.4624 77.3123 9.4624C77.8317 9.4624 78.3592 9.57781 78.8456 9.80861C79.0929 9.93226 79.3237 10.0724 79.5297 10.2373H79.538Z" fill="#3D63AE"/>
<path d="M66.2094 58.7861C66.2424 60.2781 65.0554 61.4899 63.5716 61.4899H25.7935L28.967 56.2225H63.4562C64.8987 56.2225 66.1682 57.3436 66.2094 58.7861Z" fill="black"/>
<path d="M73.7249 11.5705L71.8125 9.22949C71.6724 9.06463 71.5322 8.89976 71.3839 8.74314C69.7847 7.04507 67.5673 6.08887 65.218 6.08887H31.1328C28.495 6.08887 25.9644 7.34182 24.357 9.44381L12.5941 24.8831L8.59619 30.1257H11.4401L13.913 31.8403L17.1031 27.6446L28.5445 12.6339C29.1545 11.8343 30.1272 11.3562 31.1328 11.3562H65.2098C66.1907 11.3562 67.1057 11.7931 67.7322 12.5515L67.8229 12.6586L69.9825 15.3047L72.3236 18.1815L75.9011 14.2413L73.7249 11.5705Z" fill="black"/>
<path d="M94.6466 40.2743V61.1706C94.6466 63.4044 93.7893 65.5064 92.2313 67.1056L91.3658 67.9958C89.7749 69.6362 87.5493 70.5759 85.2659 70.5759H82.0841C79.265 70.5759 76.6354 69.1911 75.0527 66.8665L65.0786 52.2598C64.4768 51.3695 63.4712 50.842 62.3913 50.842H34.0516C32.9223 50.842 31.8589 51.4437 31.2736 52.4081L28.9738 56.2247L25.8002 61.492L22.7997 66.4626C21.2665 69.0015 18.4721 70.5759 15.5046 70.5759H11.5561C9.28104 70.5759 7.14608 69.6939 5.53043 68.0865C3.92303 66.4791 3.04102 64.3359 3.04102 62.0608V40.3238C3.04102 38.4691 3.65925 36.6391 4.78031 35.1636L8.60511 30.1353H11.449L13.9219 31.8499L8.9678 38.3537C8.53916 38.9142 8.30011 39.6149 8.30011 40.3238V62.0608C8.30011 62.9263 8.63808 63.7424 9.25631 64.3606C9.8663 64.9706 10.6824 65.3168 11.5561 65.3168H15.5046C16.6339 65.3168 17.7055 64.7151 18.2825 63.7424L22.1155 57.387L26.7564 49.6962C28.2896 47.1573 31.084 45.5746 34.0516 45.5746H62.3996C65.2187 45.5746 67.8483 46.9677 69.4309 49.2923L79.4051 63.899C80.0068 64.7893 81.0125 65.3168 82.0923 65.3168H85.2742C86.1397 65.3168 86.997 64.9541 87.5987 64.3359L88.4642 63.4456C89.0578 62.8357 89.3792 62.0278 89.3792 61.1788V40.2825C89.3792 39.5407 89.1155 38.807 88.6456 38.23L82.0923 31.8499L86.0062 28.6016L92.7259 34.908C93.9624 36.4165 94.6383 38.3289 94.6383 40.2908L94.6466 40.2743Z" fill="black"/>
<path d="M55.4513 36.7967L52.0634 40.5226C51.4864 41.1573 50.7857 41.6354 50.0356 41.9322C49.912 41.9816 49.7883 42.0228 49.6564 42.0641H29.4526C28.9168 42.0641 28.3892 41.9074 27.9524 41.6024L13.9144 31.8591L11.4414 30.1445H2.63779C1.18701 30.1445 0 28.9658 0 27.5067C0 26.0477 1.17876 24.8772 2.63779 24.8772H12.2657C12.3729 24.8772 12.4883 24.8854 12.5955 24.9019C13.0159 24.9514 13.4198 25.108 13.7742 25.3471L17.1127 27.6634L30.2852 36.7967H55.4513Z" fill="black"/>
<path d="M97.6811 27.4975C97.6811 28.2393 97.3761 28.907 96.8815 29.3851C96.4117 29.8467 95.7605 30.127 95.0433 30.127H86.2314L83.5607 31.9735L81.6318 33.3088L69.7123 41.5767C69.2671 41.8817 68.7478 42.0383 68.212 42.0383H54.8994L60.1668 36.7709H67.3877L80.2222 27.8684L74.518 20.87L78.2604 17.1194L84.6405 24.9503C84.8878 24.8761 85.1434 24.8432 85.3989 24.8432H95.0351C96.4859 24.8432 97.6729 26.0219 97.6729 27.4727L97.6811 27.4975Z" fill="black"/>
<path d="M79.538 10.2376L75.9028 14.2438L72.3253 18.184L68.2614 22.6682C68.1543 22.5858 68.0554 22.5034 67.9564 22.4044C66.5634 21.0114 66.5634 18.7445 67.9564 17.3432L69.9842 15.3154L74.7817 10.5179C75.4659 9.83371 76.3891 9.46277 77.3123 9.46277C77.8317 9.46277 78.3592 9.57817 78.8456 9.80898C79.0929 9.93263 79.3237 10.0728 79.5297 10.2376H79.538Z" fill="#3D63AE"/>
<path d="M61.3447 30.2925L55.4426 36.7963L52.0547 40.5222C51.4777 41.1569 50.777 41.635 50.0269 41.9317C49.9033 41.9812 49.7796 42.0224 49.6477 42.0636C49.5653 42.0884 49.4829 42.1131 49.4004 42.1378C49.3757 42.1131 49.3592 42.0884 49.3345 42.0636C48.1805 40.6541 48.2546 38.5768 49.5735 37.2579L50.0352 36.7963L56.4071 30.4244C57.0913 29.7402 58.0062 29.3693 58.9377 29.3693C59.457 29.3693 59.9763 29.4847 60.4709 29.7155C60.7924 29.8721 61.0892 30.0699 61.3365 30.2842L61.3447 30.2925Z" fill="#3D63AE"/>
<path d="M86.1113 5.88471L82.1628 10.2371L78.5276 14.2432L74.9501 18.1834L70.8863 22.6677L63.9786 30.2843L58.0765 36.7881L54.6886 40.514C54.1116 41.1487 53.4109 41.6268 52.6608 41.9235C52.5371 41.973 52.4135 42.0142 52.2816 42.0554C52.1992 42.0802 52.1167 42.1049 52.0343 42.1296C51.0864 42.3769 50.0807 42.3522 49.1327 42.0554C48.4486 41.8411 47.7891 41.4866 47.2039 40.9838L42.3404 36.7963L33.4214 29.1138C31.9459 27.8443 31.781 25.6269 33.0505 24.1514C34.3199 22.6759 36.5373 22.511 38.0128 23.7805L50.5753 34.5954L70.4576 12.677L74.0187 8.75331L80.9099 1.15317C82.2206 -0.28113 84.4462 -0.396533 85.8805 0.914119C87.323 2.21653 87.4302 4.44217 86.1278 5.88471H86.1113Z" fill="#25D366"/>
<path d="M382.722 26.4975C381.485 25.0155 379.945 23.7633 378.042 22.7408C375.89 21.5843 373.462 21.0098 370.581 21.0098C367.412 21.0098 364.522 21.8745 361.824 23.5031L361.823 23.5037C359.305 25.0405 357.35 27.152 355.772 29.8281L355.55 30.205H355.988H365.9H365.961L366.015 30.1773C366.394 29.9823 366.678 29.7871 366.951 29.5999C368.571 28.6747 370.27 28.1257 372.142 28.1257C374.023 28.1257 375.719 28.5855 377.328 29.5969L378.15 30.1611L378.213 30.205H378.291H390.498H390.748V29.955V21.8268V21.5768H390.498H382.972H382.722V21.8268V26.4975Z" fill="black" stroke="black" stroke-width="0.5"/>
<path d="M363.094 46.6654L363.094 46.6654L363.092 46.6609C362.107 44.8165 361.653 42.5914 361.653 40.0683C361.653 38.115 362.014 36.3507 362.644 34.7738L362.781 34.431H362.412H354.427H354.228L354.183 34.6253C353.813 36.2451 353.535 38.0601 353.535 40.0683C353.535 43.789 354.276 47.1347 355.763 50.1959L355.762 50.196L355.767 50.2042C357.345 53.1672 359.392 55.4706 362.004 57.1037C364.612 58.7342 367.503 59.5991 370.581 59.5991C373.37 59.5991 375.888 59.0244 378.13 57.8701C380.12 56.8451 381.669 55.516 382.905 54.0199V58.782V59.032H383.155H390.681H390.931V58.782V34.681V34.431H390.681H382.054H381.692L381.82 34.7693C382.452 36.4436 382.813 38.2095 382.813 40.2573C382.813 42.7731 382.271 45.0002 381.283 46.85C380.291 48.707 379.036 50.0863 377.432 51.0039C375.81 51.9321 374.108 52.4831 372.233 52.4831C370.441 52.4831 368.652 52.022 367.043 51.0093C365.427 49.9925 364.082 48.6081 363.094 46.6654Z" fill="black" stroke="black" stroke-width="0.5"/>
<path d="M296.721 26.4674C295.531 24.9937 293.926 23.7529 292.042 22.7408C289.889 21.584 287.369 21.0098 284.581 21.0098C281.411 21.0098 278.522 21.8745 275.824 23.5031L275.823 23.5037C273.305 25.0405 271.35 27.152 269.772 29.8281L269.55 30.205H269.987H279.9H279.977L280.041 30.1611C280.17 30.0725 280.323 29.9826 280.486 29.8869L280.49 29.8843C280.644 29.7935 280.808 29.6974 280.95 29.6C282.57 28.6747 284.269 28.1257 286.141 28.1257C288.022 28.1257 289.718 28.5855 291.327 29.5969L291.736 29.8776L292.149 30.1611L292.213 30.205H292.291H304.498H304.748V29.955V21.8268V21.5768H304.498H296.971H296.721V21.8268V26.4674Z" fill="black" stroke="black" stroke-width="0.5"/>
<path d="M277.002 46.6654L277.002 46.6654L277 46.661C276.015 44.8165 275.561 42.5914 275.561 40.0683C275.561 38.115 275.922 36.3507 276.553 34.7738L276.69 34.431H276.32H268.335H268.136L268.092 34.6253C267.721 36.2451 267.443 38.0601 267.443 40.0683C267.443 43.789 268.184 47.1347 269.671 50.1959L269.671 50.196L269.675 50.2042C271.253 53.1672 273.301 55.4706 275.913 57.1037C278.522 58.7354 281.505 59.5991 284.673 59.5991C287.462 59.5991 289.89 59.0242 292.042 57.868L292.042 57.8681L292.045 57.8661C294.026 56.7615 295.574 55.5012 296.813 53.9505V59.3491C296.813 62.8996 295.906 65.5688 294.131 67.3976C292.348 69.2328 290.03 70.1572 287.059 70.1572C284.527 70.1572 282.375 69.5988 280.59 68.4036L280.59 68.4035L280.582 68.3987C278.798 67.2966 277.644 65.7403 277.111 63.9103L277.059 63.7302H276.871H269.529H269.249L269.28 64.0083C269.747 68.1419 271.619 71.3236 274.887 73.7275C278.15 76.1273 282.243 77.3676 287.151 77.3676C290.856 77.3676 294.022 76.6046 296.638 75.0657C299.339 73.5304 301.393 71.4161 302.793 68.6308C304.189 65.9464 304.931 62.8825 304.931 59.4436V34.681V34.431H304.681H295.962H295.593L295.73 34.7738C296.36 36.3486 296.722 38.2071 296.722 40.2573C296.722 42.7731 296.179 45.0002 295.191 46.85C294.199 48.707 292.944 50.0863 291.34 51.0039C289.718 51.9321 288.016 52.4831 286.141 52.4831C284.349 52.4831 282.56 52.022 280.951 51.0093C279.335 49.9925 277.99 48.6081 277.002 46.6654Z" fill="black" stroke="black" stroke-width="0.5"/>
<path d="M232.725 43.4372H259.799H260.012L260.046 43.2271C260.232 42.0775 260.325 40.8353 260.325 39.4067C260.325 37.7814 260.139 36.1593 259.862 34.6362L259.824 34.431H259.616H252.09H251.807L251.841 34.7111C251.923 35.3842 252.003 36.0435 252.02 36.6993H232.73C232.827 35.9794 232.986 35.3299 233.148 34.7478L233.236 34.431H232.907H225.381H225.177L225.136 34.6309C224.767 36.4347 224.488 38.2488 224.488 40.2573C224.488 44.0692 225.229 47.5155 226.814 50.3963C228.394 53.2669 230.534 55.5689 233.237 57.2002L233.24 57.2021C236.036 58.8338 239.109 59.5991 242.636 59.5991C246.901 59.5991 250.445 58.5479 253.343 56.3342C256.228 54.1299 258.277 51.2523 259.395 47.8009L259.5 47.4739H259.157H251.172H251.015L250.947 47.6147C250.138 49.2798 249.044 50.5406 247.678 51.3864C246.313 52.2324 244.662 52.6721 242.728 52.6721C240.03 52.6721 237.707 51.8405 235.831 50.0928C234.017 48.4029 233.032 46.1924 232.725 43.4372Z" fill="black" stroke="black" stroke-width="0.5"/>
<path d="M248.81 30.148L248.88 30.205H248.969H257.689H258.106L257.909 29.837C256.419 27.0557 254.275 24.8481 251.666 23.3126L251.666 23.3126L251.663 23.3107C248.959 21.7748 245.887 21.0098 242.453 21.0098C238.928 21.0098 235.762 21.7744 232.965 23.4067L232.964 23.4071C230.354 24.9428 228.305 27.0547 226.724 29.8313L226.511 30.205H226.941H235.936H236.026L236.095 30.148C237.886 28.6728 239.941 27.9367 242.269 27.9367C244.879 27.9367 247.024 28.6764 248.81 30.148Z" fill="black" stroke="black" stroke-width="0.5"/>
<path d="M217.671 29.4489H217.921V29.1989V21.2598V21.0098H217.671C215.152 21.0098 212.998 21.5866 211.123 22.649L211.123 22.6489L211.118 22.6518C209.575 23.5716 208.242 24.7829 207.182 26.3471V21.8268V21.5768H206.932H199.498H199.248V21.8268V29.955V30.205H199.498H211.338H211.385L211.43 30.1875C212.589 29.7281 214.026 29.4489 215.743 29.4489H217.671Z" fill="black" stroke="black" stroke-width="0.5"/>
<path d="M199.157 58.782V59.032H199.407H206.841H207.091V58.782V39.3121C207.091 37.4365 207.273 35.9503 207.631 34.7525L207.727 34.431H207.392H199.407H199.157V34.681V58.782Z" fill="black" stroke="black" stroke-width="0.5"/>
<path d="M182.36 58.782V59.032H182.61H189.952H190.202V58.782V37.0438C190.202 36.178 190.109 35.4093 190.018 34.6562L190.017 34.6508L189.99 34.431H189.769H182.151H181.818L181.911 34.7509C182.179 35.6712 182.36 36.8762 182.36 38.178V58.782Z" fill="black" stroke="black" stroke-width="0.5"/>
<path d="M179.412 30.1401L179.484 30.205H179.581H188.759H189.103L188.997 29.878C188.805 29.2853 188.518 28.7931 188.246 28.3256L188.242 28.3202C186.937 25.9202 185.161 24.0899 182.915 22.8372C180.668 21.5838 178.054 21.0098 175.267 21.0098C173.125 21.0098 171.071 21.3935 169.108 22.2597L169.108 22.2597L169.104 22.2616C167.454 23.0261 166.021 24.0911 164.87 25.3914V21.8268V21.5768H164.62H157.186H156.936V21.8268V29.955V30.205H157.186H167.649H167.745L167.817 30.1401C169.322 28.7729 171.276 28.1257 173.615 28.1257C176.044 28.1257 177.907 28.7721 179.412 30.1401Z" fill="black" stroke="black" stroke-width="0.5"/>
<path d="M156.936 58.782V59.032H157.186H164.62H164.87V58.782V38.178C164.87 36.9719 165.05 35.7607 165.233 34.7244L165.285 34.431H164.987H157.186H156.936V34.681V58.782Z" fill="black" stroke="black" stroke-width="0.5"/>
<path d="M121.76 43.4372H148.742H148.955L148.989 43.2271C149.175 42.0775 149.268 40.8353 149.268 39.4067C149.268 37.7814 149.082 36.1593 148.805 34.6362L148.767 34.431H148.559H141.032H140.75L140.784 34.7111C140.866 35.3842 140.946 36.0435 140.963 36.6993H121.673C121.77 35.9794 121.929 35.3299 122.091 34.7478L122.179 34.431H121.85H114.324H114.12L114.079 34.6309C113.71 36.4347 113.431 38.2488 113.431 40.2573C113.431 44.0692 114.171 47.5155 115.757 50.3963C117.337 53.2674 119.478 55.5704 122.275 57.2021C125.071 58.8338 128.144 59.5991 131.671 59.5991C135.936 59.5991 139.48 58.5479 142.377 56.3342C145.263 54.1299 147.312 51.2523 148.429 47.8009L148.535 47.4739H148.191H140.206H140.05L139.981 47.6147C139.173 49.2798 138.078 50.5406 136.713 51.3864C135.348 52.2324 133.697 52.6721 131.762 52.6721C129.064 52.6721 126.741 51.8405 124.865 50.0928C123.052 48.4029 122.066 46.1924 121.76 43.4372Z" fill="black" stroke="black" stroke-width="0.5"/>
<path d="M137.753 30.148L137.822 30.205H137.912H146.631H147.049L146.852 29.837C145.362 27.0557 143.218 24.8481 140.609 23.3126L140.609 23.3126L140.606 23.3107C137.902 21.7748 134.83 21.0098 131.396 21.0098C127.87 21.0098 124.705 21.7744 121.908 23.4067L121.907 23.4071C119.297 24.9428 117.248 27.0547 115.667 29.8313L115.454 30.205H115.884H124.879H124.969L125.038 30.148C126.829 28.6728 128.883 27.9367 131.212 27.9367C133.822 27.9367 135.967 28.6764 137.753 30.148Z" fill="black" stroke="black" stroke-width="0.5"/>
<path d="M344.771 17.2381L344.762 17.2511L344.754 17.2652L337.871 29.8355L337.668 30.2056H338.09H346.259H346.406L346.477 30.0766L351.334 21.3001C351.629 20.8905 351.827 20.3795 351.832 19.772C351.925 19.2597 351.827 18.7549 351.74 18.3032L351.736 18.2827C351.633 17.7564 351.333 17.2483 351.05 16.86C350.749 16.4468 350.354 16.1444 349.888 15.856C349.477 15.5433 348.974 15.4398 348.536 15.3496L348.512 15.3446C348.002 15.2397 347.5 15.3432 347.056 15.4348L347.034 15.4392C346.518 15.5454 346.111 15.8596 345.757 16.1334L345.739 16.1477C345.343 16.4532 345.05 16.8558 344.781 17.225L344.771 17.2381Z" fill="black" stroke="black" stroke-width="0.5"/>
<path d="M335.302 34.5578L326.709 49.7407L318.393 44.7684L318.386 44.7643L318.379 44.7607C317.999 44.5652 317.518 44.3661 317.03 44.2655C316.52 44.1606 316.018 44.2641 315.573 44.3557L315.552 44.3601C315.036 44.4663 314.63 44.7805 314.275 45.0543L314.257 45.0687C313.852 45.3813 313.557 45.7918 313.276 46.2748L313.271 46.283L313.267 46.2915C313.077 46.682 312.884 47.1758 312.787 47.6762C312.686 48.1967 312.786 48.7101 312.875 49.1687L312.879 49.1892C312.981 49.7167 313.285 50.1336 313.552 50.4999L313.565 50.5174C313.868 50.9338 314.267 51.2377 314.737 51.5281L314.74 51.5301L326.292 58.4222C326.703 58.7339 327.206 58.8373 327.643 58.9274L327.667 58.9323C328.177 59.0373 328.679 58.9338 329.124 58.8422L329.145 58.8378C329.661 58.7316 330.068 58.4174 330.422 58.1436L330.441 58.1292C330.836 57.8238 331.129 57.4212 331.398 57.0519L331.408 57.0389L331.416 57.027L331.424 57.0142L343.906 34.8035L344.115 34.431H343.688H335.519H335.374L335.302 34.5578Z" fill="black" stroke="black" stroke-width="0.5"/>
</svg>

<svg
      width="392"
      height="78"
      viewBox="0 0 392 78"
      fill="none"
      xmlns="http://www.w3.org/2000/svg"
      
    >
      <path
        d="M79.538 10.237l-3.635 4.006-3.578 3.94-4.064 4.485a3.065 3.065 0 01-.305-.264 3.587 3.587 0 010-5.061l2.028-2.028 4.798-4.797a3.599 3.599 0 012.53-1.056c.52 0 1.047.116 1.534.347.247.123.478.263.684.428h.008z"
        fill="#3D63AE"
      />
      <path
        d="M79.538 10.237l-3.635 4.006-3.578 3.94-4.064 4.485a3.065 3.065 0 01-.305-.264 3.587 3.587 0 010-5.061l2.028-2.028 4.798-4.797a3.599 3.599 0 012.53-1.056c.52 0 1.047.116 1.534.347.247.123.478.263.684.428h.008z"
        fill="#3D63AE"
      />
      <path
        d="M66.21 58.786a2.634 2.634 0 01-2.638 2.704H25.793l3.174-5.268h34.49c1.442 0 2.711 1.122 2.752 2.564zM73.725 11.57l-1.912-2.34c-.14-.165-.28-.33-.43-.487a8.44 8.44 0 00-6.165-2.654H31.133a8.58 8.58 0 00-6.776 3.355l-11.763 15.44-3.998 5.242h2.844l2.473 1.714 3.19-4.195 11.441-15.011a3.28 3.28 0 012.589-1.278H65.21c.98 0 1.896.437 2.522 1.196l.09.107 2.16 2.646 2.342 2.877 3.577-3.94-2.176-2.672z"
        fill="#000"
      />
      <path
        d="M94.647 40.274v20.897a8.45 8.45 0 01-2.416 5.935l-.865.89a8.546 8.546 0 01-6.1 2.58h-3.182a8.495 8.495 0 01-7.031-3.71L65.079 52.26a3.235 3.235 0 00-2.688-1.418h-28.34a3.27 3.27 0 00-2.777 1.566l-2.3 3.817-3.174 5.267-3 4.97a8.564 8.564 0 01-7.295 4.114h-3.949a8.48 8.48 0 01-6.026-2.49 8.467 8.467 0 01-2.489-6.025V40.324c0-1.855.618-3.685 1.74-5.16l3.824-5.029h2.844l2.473 1.715-4.954 6.504a3.265 3.265 0 00-.668 1.97V62.06c0 .865.338 1.681.956 2.3.61.61 1.426.956 2.3.956h3.949c1.129 0 2.2-.602 2.777-1.575l3.834-6.355 4.64-7.69a8.572 8.572 0 017.296-4.122H62.4a8.502 8.502 0 017.03 3.717L79.406 63.9a3.234 3.234 0 002.687 1.418h3.182c.866 0 1.723-.363 2.325-.981l.865-.89c.594-.61.915-1.418.915-2.267V40.282c0-.741-.264-1.475-.733-2.052l-6.554-6.38 3.914-3.248 6.72 6.306a8.506 8.506 0 011.912 5.383l.009-.017z"
        fill="#000"
      />
      <path
        d="M55.451 36.797l-3.388 3.726a5.473 5.473 0 01-2.027 1.41 5.18 5.18 0 01-.38.131H29.453a2.622 2.622 0 01-1.5-.462L13.913 31.86l-2.473-1.715H2.638A2.64 2.64 0 010 27.508a2.628 2.628 0 012.638-2.63h9.628c.107 0 .222.008.33.025.42.05.824.206 1.178.445l3.339 2.316 13.172 9.134h25.166zM97.681 27.497c0 .742-.305 1.41-.8 1.888a2.612 2.612 0 01-1.838.742h-8.812l-2.67 1.847-1.93 1.335-11.919 8.268a2.641 2.641 0 01-1.5.461H54.899l5.268-5.267h7.22l12.835-8.903-5.704-6.998 3.742-3.75 6.38 7.83c.248-.074.503-.107.759-.107h9.636a2.638 2.638 0 012.638 2.63l.008.024z"
        fill="#000"
      />
      <path
        d="M79.538 10.238l-3.635 4.006-3.578 3.94-4.064 4.484a3.04 3.04 0 01-.305-.264 3.587 3.587 0 010-5.06l2.028-2.029 4.798-4.797a3.599 3.599 0 012.53-1.055c.52 0 1.047.115 1.534.346.247.124.478.264.684.429h.008zM61.345 30.293l-5.902 6.503-3.388 3.726a5.471 5.471 0 01-2.028 1.41c-.124.05-.247.09-.38.132l-.247.074c-.024-.025-.04-.05-.066-.074a3.583 3.583 0 01.24-4.806l.461-.462 6.372-6.372a3.584 3.584 0 012.53-1.055c.52 0 1.04.116 1.534.346.321.157.618.355.866.57l.008.008z"
        fill="#3D63AE"
      />
      <path
        d="M86.111 5.885l-3.948 4.352-3.635 4.006-3.578 3.94-4.064 4.485-6.907 7.616-5.902 6.504-3.388 3.726a5.471 5.471 0 01-2.028 1.41c-.124.049-.248.09-.38.131l-.247.075a5.265 5.265 0 01-2.901-.075 5.46 5.46 0 01-1.93-1.071l-4.863-4.188-8.919-7.682a3.515 3.515 0 01-.37-4.963 3.515 3.515 0 014.962-.37l12.562 10.814 19.883-21.918 3.56-3.924 6.892-7.6c1.31-1.434 3.536-1.55 4.97-.239a3.52 3.52 0 01.248 4.97h-.017z"
        fill="#25D366"
      />
      <path
        d="M382.722 26.497c-1.237-1.482-2.777-2.734-4.68-3.756-2.152-1.157-4.58-1.731-7.461-1.731-3.169 0-6.059.864-8.757 2.493h-.001c-2.518 1.538-4.473 3.649-6.051 6.325l-.222.377H365.961l.054-.028c.379-.195.663-.39.936-.577 1.62-.925 3.319-1.474 5.191-1.474 1.881 0 3.577.46 5.186 1.47l.822.565.063.044h12.535v-8.628h-8.026v4.92zM363.094 46.665h0l-.002-.004c-.985-1.845-1.439-4.07-1.439-6.593 0-1.953.361-3.717.991-5.294l.137-.343h-8.553l-.045.194c-.37 1.62-.648 3.435-.648 5.443 0 3.721.741 7.067 2.228 10.128h-.001l.005.008c1.578 2.963 3.625 5.267 6.237 6.9 2.608 1.63 5.499 2.495 8.577 2.495 2.789 0 5.307-.575 7.549-1.729a15.07 15.07 0 004.775-3.85v5.012h8.026V34.431h-9.239l.128.338c.632 1.675.993 3.44.993 5.488 0 2.516-.542 4.743-1.53 6.593-.992 1.857-2.247 3.236-3.851 4.154-1.622.928-3.324 1.48-5.199 1.48-1.792 0-3.581-.462-5.19-1.475-1.616-1.017-2.961-2.4-3.949-4.344zM296.721 26.467c-1.19-1.473-2.795-2.714-4.679-3.726-2.153-1.157-4.673-1.731-7.461-1.731-3.17 0-6.059.864-8.757 2.493h-.001c-2.518 1.538-4.473 3.649-6.051 6.325l-.222.377h10.427l.064-.044c.129-.088.282-.178.445-.274l.004-.003c.154-.09.318-.187.46-.284 1.62-.925 3.319-1.474 5.191-1.474 1.881 0 3.577.46 5.186 1.47l.409.282.413.283.064.044h12.535v-8.628H296.721v4.89zM277.002 46.665h0l-.002-.004c-.985-1.845-1.439-4.07-1.439-6.593 0-1.953.361-3.717.992-5.294l.137-.343h-8.554l-.044.194c-.371 1.62-.649 3.435-.649 5.443 0 3.721.741 7.067 2.228 10.128h0l.004.008c1.578 2.963 3.626 5.267 6.238 6.9 2.609 1.631 5.592 2.495 8.76 2.495 2.789 0 5.217-.575 7.369-1.731h0l.003-.002c1.981-1.105 3.529-2.365 4.768-3.916v5.4c0 3.55-.907 6.219-2.682 8.048-1.783 1.835-4.101 2.76-7.072 2.76-2.532 0-4.684-.56-6.469-1.754h0l-.008-.005c-1.784-1.102-2.938-2.659-3.471-4.489l-.052-.18h-7.81l.031.278c.467 4.134 2.339 7.316 5.607 9.72 3.263 2.4 7.356 3.64 12.264 3.64 3.705 0 6.871-.763 9.487-2.302 2.701-1.536 4.755-3.65 6.155-6.435 1.396-2.685 2.138-5.748 2.138-9.187V34.43h-9.338l.137.343c.63 1.575.992 3.433.992 5.483 0 2.516-.543 4.743-1.531 6.593-.992 1.857-2.247 3.236-3.851 4.154-1.622.928-3.324 1.48-5.199 1.48-1.792 0-3.581-.462-5.19-1.475-1.616-1.017-2.961-2.4-3.949-4.344zM232.725 43.437H260.012l.034-.21c.186-1.15.279-2.392.279-3.82 0-1.626-.186-3.248-.463-4.77l-.038-.206h-8.017l.034.28c.082.673.162 1.333.179 1.988h-19.29c.097-.72.256-1.37.418-1.951l.088-.317h-8.059l-.041.2c-.369 1.804-.648 3.618-.648 5.626 0 3.812.741 7.259 2.326 10.14 1.58 2.87 3.72 5.172 6.423 6.803l.003.002c2.796 1.632 5.869 2.397 9.396 2.397 4.265 0 7.809-1.051 10.707-3.265 2.885-2.204 4.934-5.082 6.052-8.533l.105-.327H251.015l-.068.14c-.809 1.666-1.903 2.927-3.269 3.772-1.365.846-3.016 1.286-4.95 1.286-2.698 0-5.021-.831-6.897-2.58-1.814-1.69-2.799-3.9-3.106-6.655zM248.81 30.148l.07.057h9.226l-.197-.368c-1.49-2.781-3.634-4.989-6.243-6.524h0l-.003-.002c-2.704-1.536-5.776-2.301-9.21-2.301-3.525 0-6.691.764-9.488 2.397h-.001c-2.61 1.536-4.659 3.648-6.24 6.424l-.213.374H236.026l.069-.057c1.791-1.475 3.846-2.211 6.174-2.211 2.61 0 4.755.74 6.541 2.211zM217.671 29.449h.25V21.009h-.25c-2.519 0-4.673.578-6.548 1.64h0l-.005.003a12.287 12.287 0 00-3.936 3.695v-4.77h-7.934v8.628h12.137l.045-.017c1.159-.46 2.596-.74 4.313-.74h1.928zM199.157 58.782v.25h7.934v-19.72c0-1.875.182-3.362.54-4.56l.096-.321h-8.57v24.351zM182.36 58.782v.25h7.842V37.044c0-.866-.093-1.635-.184-2.388l-.001-.005-.027-.22h-8.172l.093.32c.268.92.449 2.125.449 3.427v20.604zM179.412 30.14l.072.065h9.619l-.106-.327c-.192-.593-.479-1.085-.751-1.552l-.004-.006c-1.305-2.4-3.081-4.23-5.327-5.483-2.247-1.253-4.861-1.827-7.648-1.827-2.142 0-4.196.383-6.159 1.25h0l-.004.002a12.837 12.837 0 00-4.234 3.13v-3.815h-7.934v8.628h10.809l.072-.065c1.505-1.367 3.459-2.014 5.798-2.014 2.429 0 4.292.646 5.797 2.014zM156.936 58.782v.25h7.934V38.178c0-1.206.18-2.417.363-3.454l.052-.293h-8.349v24.351zM121.76 43.437h27.195l.034-.21c.186-1.15.279-2.392.279-3.82 0-1.626-.186-3.248-.463-4.77l-.038-.206h-8.017l.034.28c.082.673.162 1.333.179 1.988h-19.29c.097-.72.256-1.37.418-1.951l.088-.317h-8.059l-.041.2c-.369 1.804-.648 3.618-.648 5.626 0 3.812.74 7.259 2.326 10.14 1.58 2.87 3.721 5.173 6.518 6.805 2.796 1.632 5.869 2.397 9.396 2.397 4.265 0 7.809-1.051 10.706-3.265 2.886-2.204 4.935-5.082 6.052-8.533l.106-.327H140.05l-.069.14c-.808 1.666-1.903 2.927-3.268 3.772-1.365.846-3.016 1.286-4.951 1.286-2.698 0-5.021-.831-6.897-2.58-1.813-1.69-2.799-3.9-3.105-6.655zM137.753 30.148l.069.057H147.049l-.197-.368c-1.49-2.781-3.634-4.989-6.243-6.524h0l-.003-.002c-2.704-1.536-5.776-2.301-9.21-2.301-3.526 0-6.691.764-9.488 2.397h-.001c-2.61 1.536-4.659 3.648-6.24 6.424l-.213.374H124.969l.069-.057c1.791-1.475 3.845-2.211 6.174-2.211 2.61 0 4.755.74 6.541 2.211zM344.771 17.238l-.009.013-.008.014-6.883 12.57-.203.37H346.406l.071-.128 4.857-8.777c.295-.41.493-.92.498-1.528.093-.512-.005-1.017-.092-1.469l-.004-.02c-.103-.527-.403-1.035-.686-1.423-.301-.413-.696-.716-1.162-1.004-.411-.313-.914-.416-1.352-.506l-.024-.005c-.51-.105-1.012-.002-1.456.09l-.022.004c-.516.106-.923.42-1.277.694l-.018.015c-.396.305-.689.708-.958 1.077l-.01.013zM335.302 34.558l-8.593 15.183-8.316-4.973-.007-.004-.007-.003a5.467 5.467 0 00-1.349-.495c-.51-.105-1.012-.002-1.457.09l-.021.004c-.516.106-.922.42-1.277.694l-.018.015c-.405.312-.7.723-.981 1.206l-.005.008-.004.008c-.19.391-.383.885-.48 1.385-.101.52-.001 1.034.088 1.493l.004.02c.102.528.406.945.673 1.31l.013.018c.303.417.702.72 1.172 1.011l.003.002 11.552 6.892c.411.312.914.415 1.351.505l.024.005c.51.105 1.012.002 1.457-.09l.021-.004c.516-.106.923-.42 1.277-.694l.019-.015c.395-.305.688-.708.957-1.077l.01-.013.008-.012.008-.013 12.482-22.21.209-.373h-8.741l-.072.127z"
        fill="#000"
        stroke="#000"
        strokeWidth="0.5"
      />
    </svg>
